logos/recaptcha.svg

<?xml version="1.0" encoding="UTF-8"?>
<svg width="256px" height="244px" viewBox="0 0 256 244" version="1.1" xmlns="http://www.w3.org/2000/svg" preserveAspectRatio="xMidYMid">
    <title>reCAPTCHA</title>
    <g>
        <g transform="translate(40.633424, 0.000000)">
            <path d="M170.667642,84.9655627 C170.663578,83.7417871 170.635337,82.5245945 170.580479,81.3132534 L170.580479,12.2513683 L151.487736,31.3441117 C135.861395,12.2168282 112.089689,0 85.4633463,0 C57.7540706,0 33.1371485,13.2262114 17.5758241,33.7090917 L48.8711733,65.3335876 C51.9381298,59.6614961 56.2950568,54.7897186 61.5484006,51.1101836 C67.0120326,46.8465148 74.7534816,43.3604043 85.4623304,43.3604043 C86.7560395,43.3604043 87.754573,43.511568 88.4882451,43.7963814 C101.756514,44.8436165 113.25755,52.1660537 120.029438,62.794038 L97.877053,84.9464234 C125.935793,84.8363015 157.633433,84.7716912 170.665204,84.9606458" fill="#1C3AA9"></path>
            <path d="M84.9655627,0.0030476546 C83.7417871,0.00711119407 82.5245945,0.0353527934 81.3132534,0.0902105763 L12.2513683,0.0902105763 L31.3441117,19.182954 C12.2168282,34.809295 -2.30985476e-13,58.5810009 -2.30985476e-13,85.2073433 C-2.30985476e-13,112.916619 13.2264146,137.533541 33.7090917,153.094865 L65.3335876,121.799516 C59.6614961,118.73256 54.7897186,114.375633 51.1101836,109.122289 C46.846718,103.658657 43.3604043,95.9172079 43.3604043,85.2083592 C43.3604043,83.9146501 43.511568,82.9161166 43.7963814,82.1824445 C44.8436165,68.9141754 52.1660537,57.4131397 62.794038,50.6412511 L84.9464234,72.7936366 C84.8363015,44.7348965 84.771488,13.0372569 84.9606458,0.00548577829" fill="#4285F4"></path>
            <path d="M0.0030476546,85.2053115 C0.00711119407,86.4290871 0.0353527934,87.6462797 0.0902105763,88.8576208 L0.0902105763,157.919506 L19.182954,138.826763 C34.809295,157.954046 58.5810009,170.170874 85.2073433,170.170874 C112.916619,170.170874 137.533541,156.944663 153.094865,136.461783 L121.799516,104.837287 C118.73256,110.509378 114.375633,115.381156 109.122289,119.060691 C103.658657,123.324359 95.9172079,126.81047 85.2083592,126.81047 C83.9146501,126.81047 82.9161166,126.659306 82.1824445,126.374493 C68.9141754,125.327258 57.4131397,118.004821 50.6412511,107.376836 L72.7936366,85.2244508 C44.7348965,85.3345727 13.0372569,85.399183 0.00548577829,85.2102284" fill="#ABABAB"></path>
        </g>
        <path d="M55.0132742,203.167831 C52.9378214,203.167831 51.0771267,203.561466 49.4309869,204.348655 C47.7849486,205.118004 46.3894276,206.21837 45.2443221,207.649671 C44.1171369,209.080992 43.2494087,210.81659 42.6410156,212.856081 C42.0505833,214.877814 41.7553671,217.141083 41.7553671,219.645849 L41.7553671,226.865133 C41.7553671,229.387778 42.0505833,231.66011 42.6410156,233.681924 C43.2493274,235.703677 44.1081362,237.430133 45.2175028,238.861514 C46.3268694,240.292896 47.6686298,241.393099 49.2430482,242.162531 C50.8174665,242.931962 52.5887634,243.316556 54.5569387,243.316556 C56.5786918,243.316556 58.3500496,243.021339 59.8708293,242.430907 C61.4095088,241.840495 62.6976305,240.990626 63.7354585,239.881442 C64.7731646,238.754257 65.5693542,237.394556 66.124007,235.802055 C66.6965394,234.209696 67.0364951,232.402701 67.1438335,230.380887 L62.1787978,230.380887 C62.0535392,231.937467 61.8388624,233.27047 61.5346862,234.379613 C61.2305302,235.471019 60.7832361,236.374547 60.1928038,237.090197 C59.6202714,237.787988 58.8688214,238.306841 57.9383521,238.646797 C57.0258843,238.968832 55.8986585,239.12985 54.5568778,239.12985 C53.1255366,239.12985 51.9088723,238.816754 50.9070066,238.190543 C49.90508,237.546451 49.0910108,236.669743 48.4648194,235.560417 C47.8565075,234.451111 47.4092134,233.153989 47.1229371,231.668968 C46.8545606,230.183927 46.7203825,228.58271 46.7203825,226.865052 L46.7203825,219.592129 C46.7203825,217.749334 46.8814003,216.076355 47.2034561,214.573454 C47.5433915,213.070575 48.0533047,211.791352 48.7331959,210.735645 C49.413087,209.680018 50.2718754,208.865949 51.3096831,208.293457 C52.3473891,207.703045 53.5820143,207.407829 55.0131929,207.407829 C56.2119371,207.407829 57.2406221,207.586625 58.0994512,207.944603 C58.9582599,208.284538 59.6739102,208.821291 60.2464222,209.554821 C60.8189546,210.270491 61.257309,211.182959 61.5614649,212.292224 C61.8656208,213.40153 62.0713781,214.725471 62.1787165,216.264131 L67.1438335,216.264131 C67.0543137,214.152919 66.7232978,212.283284 66.1507654,210.655024 C65.578233,209.026865 64.7820434,207.658164 63.7622169,206.548817 C62.7423904,205.439552 61.4988254,204.598623 60.0318877,204.026172 C58.582667,203.453619 56.9098703,203.167363 55.0132132,203.167363 L55.0132742,203.167831 Z M176.212402,203.167831 C174.13695,203.167831 172.276255,203.561466 170.630115,204.348655 C168.984077,205.118004 167.588556,206.21837 166.44345,207.649671 C165.316286,209.080992 164.448517,210.81659 163.840144,212.856081 C163.249732,214.877814 162.954536,217.141083 162.954536,219.645849 L162.954536,226.865133 C162.954536,229.387778 163.249732,231.66011 163.840144,233.681924 C164.448456,235.703677 165.307285,237.430133 166.416631,238.861514 C167.525937,240.292855 168.867758,241.393099 170.442176,242.162531 C172.016635,242.931881 173.787892,243.316556 175.756067,243.316556 C177.7778,243.316556 179.548975,243.021339 181.069958,242.430907 C182.608617,241.840495 183.896759,240.990626 184.934587,239.881442 C185.972313,238.754257 186.768482,237.394556 187.323135,235.802055 C187.895688,234.209696 188.235644,232.402701 188.342962,230.380887 L183.378129,230.380887 C183.252972,231.937467 183.038194,233.27047 182.734018,234.379613 C182.429862,235.471019 181.982568,236.374547 181.392156,237.090197 C180.819623,237.787988 180.068173,238.306841 179.137704,238.646797 C178.225236,238.968832 177.09801,239.12985 175.75623,239.12985 C174.324888,239.12985 173.108224,238.816754 172.106358,238.190543 C171.104432,237.546451 170.290342,236.669743 169.664171,235.560417 C169.055859,234.451111 168.608565,233.153989 168.322289,231.668968 C168.053933,230.183927 167.919734,228.58271 167.919734,226.865052 L167.919734,219.592129 C167.919734,217.749334 168.080854,216.076355 168.402808,214.573454 C168.742764,213.070575 169.252657,211.791352 169.932568,210.735645 C170.612439,209.680018 171.471247,208.865949 172.508852,208.293457 C173.546578,207.703045 174.781183,207.407829 176.212362,207.407829 C177.411086,207.407829 178.439791,207.586625 179.29862,207.944603 C180.157429,208.284538 180.873099,208.821291 181.445591,209.554821 C182.018103,210.270491 182.456458,211.182959 182.760613,212.292224 C183.064769,213.40153 183.270527,214.725471 183.377885,216.264131 L188.342962,216.264131 C188.253117,214.152919 187.922284,212.283284 187.349731,210.655024 C186.777199,209.026865 185.981029,207.658164 184.961183,206.548817 C183.941336,205.439471 182.697791,204.598623 181.230853,204.026172 C179.781653,203.453619 178.108836,203.167363 176.212179,203.167363 L176.212402,203.167831 Z M83.3016042,203.704584 L70.7147907,242.779579 L75.7602845,242.779579 L78.792904,232.581314 L91.9969692,232.581314 L95.0832274,242.779579 L100.128721,242.779579 L87.5150883,203.704584 L83.3016042,203.704584 Z M105.441799,203.704584 L105.441799,242.779579 L110.352993,242.779579 L110.352993,227.482182 L117.894313,227.482182 C119.772948,227.482182 121.436906,227.222745 122.886168,226.703892 C124.335388,226.167139 125.552053,225.397809 126.536039,224.395801 C127.537965,223.393855 128.289415,222.159432 128.790287,220.692292 C129.30914,219.207271 129.568577,217.525575 129.568577,215.646798 C129.568577,213.911301 129.309161,212.318962 128.790287,210.869701 C128.289314,209.40256 127.546804,208.141237 126.562858,207.08553 C125.578811,206.012044 124.353309,205.180075 122.886168,204.589704 C121.436947,203.999292 119.77309,203.704076 117.894313,203.704076 L105.441799,203.704584 Z M133.325807,203.704584 L133.325807,207.944887 L143.577711,207.944887 L143.577711,242.779579 L148.488904,242.779579 L148.488904,207.944887 L158.767628,207.944887 L158.767628,203.704584 L133.325807,203.704584 Z M194.971732,203.704584 L194.971732,242.779579 L199.882926,242.779579 L199.882926,224.717959 L215.609637,224.717959 L215.609637,242.779579 L220.54765,242.779579 L220.54765,203.704584 L215.609637,203.704584 L215.609637,220.504881 L199.882926,220.504881 L199.882926,203.704584 L194.971732,203.704584 Z M239.172883,203.704584 L226.58607,242.779579 L231.631563,242.779579 L234.664183,232.581314 L247.868248,232.581314 L250.954506,242.779579 L256,242.779579 L243.386367,203.704584 L239.172883,203.704584 Z M110.352586,207.944887 L117.893906,207.944887 C119.09265,207.944887 120.112396,208.159442 120.953345,208.588978 C121.812134,209.018352 122.509925,209.590885 123.046677,210.306555 C123.60131,211.022226 124.003885,211.854174 124.254361,212.802381 C124.522738,213.732728 124.656936,214.698896 124.656936,215.700904 C124.656936,216.810189 124.522758,217.829995 124.254361,218.760343 C124.003885,219.672831 123.60131,220.46902 123.046677,221.148891 C122.509925,221.810882 121.812154,222.329735 120.953345,222.705471 C120.112436,223.081185 119.09261,223.269043 117.893906,223.269043 L110.352586,223.269043 L110.352586,207.944887 Z M85.3943271,210.575013 L90.735037,228.341417 L80.0806397,228.341417 L85.3943271,210.575013 Z M241.265606,210.575013 L246.606316,228.341417 L235.951918,228.341417 L241.265606,210.575013 Z M10.0908453,213.205139 C8.85632174,213.205139 7.79169471,213.518235 6.8971065,214.144446 C6.02041817,214.770658 5.28684771,215.620507 4.6964967,216.693911 L4.61597766,213.74175 L0,213.74175 L0,242.779803 L4.75027764,242.779803 L4.75027764,222.006989 C5.19757175,220.772445 5.83272329,219.797439 6.65573225,219.081647 C7.49664111,218.365996 8.56120718,218.008161 9.8494711,218.008161 C10.2609857,218.008161 10.6277608,218.026447 10.9497963,218.0618 C11.2718521,218.080086 11.6207273,218.124378 11.9964625,218.195897 L11.9696228,213.579919 C11.8980436,213.543957 11.7817654,213.508198 11.6207273,213.472438 C11.4776095,213.418597 11.3165714,213.373898 11.1376537,213.338342 C10.9587158,213.302582 10.7708787,213.27556 10.5740611,213.25768 C10.3951232,213.221921 10.2341257,213.204042 10.0909876,213.204042 L10.0908453,213.205139 Z M26.0591332,213.205139 C24.6814714,213.205139 23.3485492,213.446655 22.0604072,213.929749 C20.7722042,214.412823 19.6271598,215.208992 18.6252941,216.318298 C17.6412674,217.409683 16.8450778,218.840943 16.2367456,220.61224 C15.6284338,222.365616 15.3242778,224.521568 15.3242778,227.080176 L15.3242778,230.354373 C15.3242778,232.572862 15.5837145,234.496338 16.1025675,236.124395 C16.6214206,237.752453 17.3639308,239.103376 18.3299967,240.176963 C19.3140437,241.232549 20.5037871,242.019778 21.8994098,242.538692 C23.2949511,243.057566 24.860511,243.316982 26.5960487,243.316982 C27.8484722,243.316982 28.9667176,243.191622 29.9507037,242.941267 C30.9526303,242.69077 31.8382787,242.368715 32.607649,241.9751 C33.3769989,241.563565 34.0389901,241.098412 34.5936226,240.579559 C35.1482551,240.060705 35.6223889,239.523953 36.0160037,238.9693 L33.5469971,235.9635 C33.1533823,236.446553 32.7329279,236.893867 32.2856338,237.305382 C31.8383397,237.698976 31.3463263,238.047892 30.8095734,238.352028 C30.2728205,238.638304 29.6823882,238.861961 29.0382969,239.022979 C28.3942056,239.183895 27.6695749,239.264516 26.8645064,239.264516 C24.6638966,239.264516 22.9730579,238.557785 21.7921933,237.144364 C20.6292286,235.730923 20.0477564,233.467674 20.0477564,230.354393 L20.0477564,229.683442 L36.2576217,229.683442 L36.2576217,226.919219 C36.2576217,224.700729 36.0697643,222.741494 35.6940291,221.041715 C35.3183143,219.341998 34.7189422,217.910758 33.8959129,216.747773 C33.0729039,215.584808 32.0172777,214.70808 30.7289934,214.117647 C29.4407905,213.509315 27.8843126,213.205139 26.0591739,213.205139 L26.0591332,213.205139 Z M26.0591332,217.284526 C27.0968393,217.284526 27.9556481,217.472262 28.6356204,217.848119 C29.3154912,218.223834 29.8522441,218.751626 30.2458792,219.431497 C30.6573939,220.111388 30.9525897,220.925498 31.1315073,221.873684 C31.3283045,222.804032 31.4535428,223.832798 31.5072222,224.959943 L31.5072222,225.604034 L20.0744539,225.604034 C20.1460331,223.975875 20.3428303,222.625053 20.6648862,221.551466 C20.986942,220.477879 21.4073964,219.628091 21.9262495,219.002001 C22.4630024,218.35791 23.080254,217.910636 23.778045,217.660139 C24.4758157,217.409663 25.2362055,217.284425 26.0593161,217.284425 L26.0591332,217.284526 Z" fill="#A6A6A6"></path>
    </g>
</svg>

<svg preserveAspectRatio="xMidYMid" viewBox="0 0 256 244" xmlns="http://www.w3.org/2000/svg">
  <path fill="#1C3AA9" d="M211.301 84.966a87.114 87.114 0 0 0-.087-3.653V12.251L192.12 31.344C176.495 12.217 152.723 0 126.097 0 98.387 0 73.77 13.226 58.209 33.71l31.296 31.624a41.463 41.463 0 0 1 12.677-14.224c5.463-4.263 13.205-7.75 23.914-7.75 1.293 0 2.292.152 3.026.436 13.268 1.048 24.769 8.37 31.54 18.998L138.51 84.946c28.06-.11 59.757-.174 72.789.015"/>
  <path fill="#4285F4" d="M125.599.003a87.114 87.114 0 0 0-3.652.087H52.885l19.093 19.093C52.85 34.809 40.633 58.581 40.633 85.207c0 27.71 13.227 52.327 33.71 67.888l31.624-31.295a41.463 41.463 0 0 1-14.223-12.678c-4.264-5.463-7.75-13.205-7.75-23.914 0-1.293.151-2.292.436-3.026 1.047-13.268 8.37-24.769 18.997-31.54l22.153 22.152c-.11-28.06-.175-59.757.014-72.789"/>
  <path fill="#ABABAB" d="M40.636 85.205c.005 1.224.033 2.441.088 3.653v69.062l19.092-19.093c15.627 19.127 39.398 31.344 66.025 31.344 27.709 0 52.326-13.226 67.887-33.71l-31.295-31.624a41.463 41.463 0 0 1-12.677 14.224c-5.464 4.263-13.205 7.75-23.914 7.75-1.294 0-2.292-.152-3.026-.437-13.268-1.047-24.77-8.37-31.541-18.997l22.152-22.153c-28.059.11-59.756.175-72.788-.014"/>
  <path fill="#A6A6A6" d="M55.013 203.168c-2.075 0-3.936.393-5.582 1.18a11.572 11.572 0 0 0-4.187 3.302c-1.127 1.431-1.995 3.167-2.603 5.206-.59 2.022-.886 4.285-.886 6.79v7.22c0 2.522.296 4.794.886 6.816.608 2.022 1.467 3.748 2.577 5.18 1.109 1.43 2.45 2.531 4.025 3.3 1.574.77 3.346 1.155 5.314 1.155 2.022 0 3.793-.296 5.314-.886 1.539-.59 2.827-1.44 3.864-2.55 1.038-1.127 1.834-2.486 2.389-4.079.573-1.592.912-3.4 1.02-5.421h-4.965c-.125 1.556-.34 2.89-.644 3.999-.304 1.091-.752 1.995-1.342 2.71-.573.698-1.324 1.217-2.255 1.557-.912.322-2.04.483-3.381.483-1.431 0-2.648-.313-3.65-.94-1.002-.644-1.816-1.52-2.442-2.63-.608-1.109-1.056-2.406-1.342-3.891-.268-1.485-.403-3.086-.403-4.804v-7.273c0-1.843.161-3.516.483-5.019.34-1.502.85-2.782 1.53-3.837.68-1.056 1.539-1.87 2.577-2.443 1.037-.59 2.272-.885 3.703-.885 1.199 0 2.228.179 3.086.537a5.01 5.01 0 0 1 2.147 1.61c.573.715 1.011 1.628 1.315 2.737.305 1.11.51 2.433.618 3.972h4.965c-.09-2.111-.42-3.98-.993-5.609-.573-1.628-1.369-2.997-2.389-4.106-1.02-1.11-2.263-1.95-3.73-2.523-1.45-.572-3.122-.859-5.019-.859Zm121.2 0c-2.076 0-3.937.393-5.583 1.18a11.572 11.572 0 0 0-4.187 3.302c-1.127 1.431-1.994 3.167-2.603 5.206-.59 2.022-.885 4.285-.885 6.79v7.22c0 2.522.295 4.794.885 6.816.608 2.022 1.467 3.748 2.577 5.18 1.109 1.43 2.45 2.531 4.025 3.3 1.575.77 3.346 1.155 5.314 1.155 2.022 0 3.793-.296 5.314-.886 1.539-.59 2.827-1.44 3.865-2.55 1.037-1.127 1.833-2.486 2.388-4.079.573-1.592.913-3.4 1.02-5.421h-4.965c-.125 1.556-.34 2.89-.644 3.999-.304 1.091-.751 1.995-1.342 2.71-.572.698-1.324 1.217-2.254 1.557-.913.322-2.04.483-3.382.483-1.431 0-2.648-.313-3.65-.94-1.002-.644-1.816-1.52-2.442-2.63-.608-1.109-1.055-2.406-1.342-3.891-.268-1.485-.402-3.086-.402-4.804v-7.273c0-1.843.16-3.516.483-5.019.34-1.502.85-2.782 1.53-3.837.68-1.056 1.538-1.87 2.576-2.443 1.038-.59 2.272-.885 3.703-.885 1.2 0 2.228.179 3.087.537.858.34 1.574.876 2.147 1.61.572.715 1.01 1.628 1.315 2.737.304 1.11.51 2.433.617 3.972h4.965c-.09-2.111-.42-3.98-.993-5.609-.573-1.628-1.369-2.997-2.389-4.106-1.02-1.11-2.263-1.95-3.73-2.523-1.45-.572-3.122-.859-5.019-.859Zm-92.911.537L70.715 242.78h5.045l3.033-10.199h13.204l3.086 10.199h5.046l-12.614-39.075h-4.213Zm22.14 0v39.075h4.911v-15.298h7.541c1.879 0 3.543-.26 4.992-.778 1.45-.537 2.666-1.306 3.65-2.308 1.002-1.002 1.753-2.237 2.254-3.704.52-1.485.779-3.166.779-5.045 0-1.736-.26-3.328-.779-4.777-.5-1.467-1.243-2.729-2.227-3.784-.984-1.074-2.21-1.906-3.677-2.496-1.45-.59-3.113-.886-4.992-.886h-12.452Zm27.884 0v4.24h10.252v34.835h4.91v-34.835h10.28v-4.24h-25.442Zm61.646 0v39.075h4.91v-18.062h15.728v18.062h4.938v-39.075h-4.938v16.8h-15.727v-16.8h-4.911Zm44.2 0-12.586 39.075h5.046l3.032-10.199h13.204l3.087 10.199H256l-12.614-39.075h-4.213Zm-128.82 4.24h7.542c1.199 0 2.218.214 3.06.644.858.43 1.556 1.002 2.093 1.718a6.9 6.9 0 0 1 1.207 2.495c.269.93.403 1.897.403 2.899 0 1.11-.134 2.129-.403 3.06a6.412 6.412 0 0 1-1.207 2.388c-.537.662-1.235 1.18-2.094 1.556-.84.376-1.86.564-3.06.564h-7.54v-15.324Zm-24.958 2.63 5.341 17.766H80.081l5.313-17.766Zm155.872 0 5.34 17.766h-10.654l5.314-17.766Zm-231.175 2.63c-1.235 0-2.3.313-3.194.94-.877.626-1.61 1.476-2.2 2.549l-.081-2.952H0v29.038h4.75v-20.773c.448-1.235 1.083-2.21 1.906-2.925.84-.716 1.905-1.074 3.193-1.074.412 0 .779.018 1.1.054.323.018.672.062 1.047.134l-.026-4.616a1.628 1.628 0 0 0-.35-.108 3.08 3.08 0 0 0-.482-.134 5.342 5.342 0 0 0-.564-.08 2.49 2.49 0 0 0-.483-.054v.001Zm15.968 0c-1.378 0-2.71.242-3.999.725-1.288.483-2.433 1.279-3.435 2.388-.984 1.092-1.78 2.523-2.388 4.294-.609 1.754-.913 3.91-.913 6.468v3.274c0 2.219.26 4.142.779 5.77.518 1.628 1.26 2.98 2.227 4.053a9.176 9.176 0 0 0 3.57 2.362c1.395.519 2.96.778 4.696.778 1.252 0 2.37-.125 3.355-.376 1.002-.25 1.887-.572 2.657-.966a9.324 9.324 0 0 0 1.986-1.395 10.676 10.676 0 0 0 1.422-1.61l-2.469-3.006c-.394.483-.814.93-1.261 1.341-.448.394-.94.743-1.476 1.047a7.733 7.733 0 0 1-1.772.671 8.985 8.985 0 0 1-2.173.242c-2.201 0-3.892-.707-5.073-2.12-1.163-1.414-1.744-3.677-1.744-6.79v-.672h16.21v-2.764c0-2.218-.188-4.178-.564-5.877-.376-1.7-.975-3.131-1.798-4.294a7.796 7.796 0 0 0-3.167-2.63c-1.288-.609-2.845-.913-4.67-.913Zm0 4.08c1.038 0 1.897.187 2.577.563a4.15 4.15 0 0 1 1.61 1.583c.411.68.707 1.494.886 2.443.196.93.322 1.959.375 3.086v.644H20.074c.072-1.628.269-2.979.59-4.053.323-1.073.743-1.923 1.262-2.549.537-.644 1.154-1.091 1.852-1.342a6.706 6.706 0 0 1 2.281-.376Z"/>
</svg>
